public/logo-white.svg

<svg width="192" height="45" viewBox="0 0 192 45" fill="none" xmlns="http://www.w3.org/2000/svg">
<path d="M69.2725 18.2365C67.6712 12.5387 63.757 9.83051 60.1275 9.83051C55.4305 9.83051 51.1605 14.4028 52.9753 22.8088C54.4342 29.5266 59.06 32.1644 63.6147 32.1644C68.1694 32.1644 72.9731 29.3507 74.005 25.2708L74.432 25.306C72.9375 31.0389 68.5608 34.1692 62.1914 34.1692C54.8612 34.1692 49.0967 29.5969 49.0967 21.5074C49.0967 13.418 54.8612 8.8457 62.1914 8.8457C65.3939 8.8457 71.9768 10.5691 71.9768 14.8249C71.9768 16.6538 70.7314 17.6034 69.6995 18.0606L69.2725 18.2365Z" fill="white"/>
<path d="M77.5635 9.19727H81.3353V20.6632H93.4337V9.19727H97.2411V33.8173H93.4337V21.437H81.3353V33.8173H77.5635V9.19727Z" fill="white"/>
<path d="M102.08 9.19727H105.852V33.8173H102.08V9.19727Z" fill="white"/>
<path d="M110.549 13.6289V9.19727H127.38L113.965 33.1139H116.776C119.374 33.1139 122.541 32.1291 124.676 30.6167L126.348 29.3505V33.8173H109.304L122.754 10.0062H120.014C117.63 10.0062 114.712 10.8503 112.72 12.1517L110.549 13.6289Z" fill="white"/>
<path d="M145.101 29.3486V33.8154H130.867V9.19727H134.603V33.0436H135.707C138.197 33.0436 141.222 32.0939 143.286 30.7222L145.101 29.3505V29.3486Z" fill="white"/>
<path d="M152.147 33.8154H145.955L156.915 9.19531H160.402L170.401 33.8154H165.917L162.893 25.8314H150.652C150.19 28.2934 150.581 31.0368 151.791 33.1471L152.147 33.8154ZM162.608 25.0577L157.342 11.0594L157.093 10.5318L151.328 23.7211C151.115 24.1432 150.972 24.6004 150.83 25.0577H162.608Z" fill="white"/>
<path d="M173.069 9.19727H181.858C188.299 9.19727 189.864 12.0813 189.864 15.5281C189.864 18.7639 187.552 21.1908 184.313 21.1908V21.3666C189.864 21.3666 191.466 24.2858 191.466 27.3106C191.466 30.5112 189.509 33.8173 182.819 33.8173H173.069V9.19727ZM182.321 21.0852C184.563 21.0852 186.128 18.2012 186.128 15.3875C186.128 12.5737 184.634 9.97104 182.321 9.97104H176.841L176.805 21.0852H182.321ZM182.356 33.0436C185.63 33.0436 187.445 30.0891 187.445 27.3809C187.445 24.4969 185.488 21.859 182.677 21.859H176.841V33.0436H182.356Z" fill="white"/>
<path d="M43.5165 43.0128H0V0H43.5165V43.0128ZM1.18611 41.8404H42.3304V1.17238H1.18611V41.8404Z" fill="white"/>
<path d="M35.6589 29.4581C35.6589 31.1971 35.3327 32.8619 34.7337 34.3919H30.1573C31.1892 32.6568 31.7902 30.5816 31.7902 28.3522C31.7902 22.2538 27.2988 17.3122 21.7596 17.3122C16.2205 17.3122 11.7291 22.2538 11.7291 28.3522C11.7291 30.5816 12.33 32.6568 13.362 34.3919H8.78357C8.18458 32.8619 7.8584 31.1971 7.8584 29.4581C7.8584 21.8689 14.0815 15.7178 21.7596 15.7178C29.4377 15.7178 35.6589 21.8689 35.6589 29.4581Z" fill="white"/>
<path d="M32.3852 8.61914C29.8489 11.9272 25.83 14.0649 21.3049 14.0649C17.8099 14.0649 14.6133 12.7889 12.1719 10.6825L13.2631 9.55705C15.0225 11.2199 17.3552 12.2301 19.9172 12.2301C22.9319 12.2301 25.6323 10.8291 27.449 8.61914H32.3852Z" fill="white"/>
<path d="M12.761 9.07051L11.6599 10.2097L11.1301 8.61914L12.761 9.07051Z" fill="white"/>
</svg>

<svg xmlns="http://www.w3.org/2000/svg" width="192" height="45" fill="none" viewBox="0 0 192 45"><path fill="#fff" d="M69.273 18.237c-1.602-5.698-5.516-8.406-9.145-8.406-4.697 0-8.968 4.572-7.153 12.978 1.46 6.718 6.085 9.355 10.64 9.355 4.554 0 9.358-2.813 10.39-6.893l.427.035c-1.495 5.733-5.871 8.863-12.24 8.863-7.33 0-13.095-4.572-13.095-12.662S54.86 8.846 62.19 8.846c3.203 0 9.786 1.723 9.786 5.979 0 1.829-1.246 2.778-2.278 3.236zM77.564 9.197h3.771v11.466h12.099V9.197h3.807v24.62h-3.807v-12.38H81.335v12.38h-3.771zM102.08 9.197h3.772v24.62h-3.772zM110.549 13.629V9.197h16.831l-13.415 23.917h2.811c2.598 0 5.765-.985 7.9-2.497l1.672-1.267v4.467h-17.044l13.45-23.81h-2.74c-2.384 0-5.302.843-7.294 2.145zM145.101 29.349v4.466h-14.234V9.197h3.736v23.847h1.104c2.49 0 5.515-.95 7.579-2.322l1.815-1.372zM152.147 33.815h-6.192l10.96-24.62h3.487l9.999 24.62h-4.484l-3.024-7.984h-12.241c-.462 2.462-.071 5.206 1.139 7.316zm10.461-8.757-5.266-13.999-.249-.527-5.765 13.19c-.213.421-.356.878-.498 1.336zM173.069 9.197h8.789c6.441 0 8.006 2.884 8.006 6.331 0 3.236-2.312 5.663-5.551 5.663v.176c5.551 0 7.153 2.919 7.153 5.944 0 3.2-1.957 6.506-8.647 6.506h-9.75zm9.252 11.888c2.242 0 3.807-2.884 3.807-5.698 0-2.813-1.494-5.416-3.807-5.416h-5.48l-.036 11.114zm.035 11.959c3.274 0 5.089-2.955 5.089-5.663 0-2.884-1.957-5.522-4.768-5.522h-5.836v11.185zM43.517 43.013H0V0h43.517zM1.187 41.84H42.33V1.172H1.186z"/><path fill="#fff" d="M35.659 29.458c0 1.74-.326 3.404-.925 4.934h-4.577a11.8 11.8 0 0 0 1.633-6.04c0-6.098-4.491-11.04-10.03-11.04-5.54 0-10.03 4.942-10.03 11.04 0 2.23.6 4.305 1.632 6.04H8.784a13.5 13.5 0 0 1-.926-4.934c0-7.59 6.224-13.74 13.902-13.74s13.899 6.15 13.899 13.74M32.385 8.62a13.93 13.93 0 0 1-11.08 5.445 13.94 13.94 0 0 1-9.133-3.383l1.091-1.125c1.76 1.663 4.092 2.673 6.654 2.673 3.015 0 5.715-1.4 7.532-3.61zM12.761 9.07l-1.101 1.14-.53-1.59z"/></svg>
